X: 4
M:6/8
L:1/8
Q:95
K:C
c2d e2d|c2B A2G|F2F E2D|d3 D2D|GE2 G2G|GE2 G2G|c2d e2d|c3 C3||

